#define gbsicon_width 128
#define gbsicon_height 39
static unsigned char gbsicon_bits[] = {
    0x00, 0x00, 0x00, 0x00, 0x00, 0x00, 0x00, 0x00, 0x00, 0x00, 0x00, 0x00,
    0x00, 0x00, 0x00, 0x00, 0xf8, 0xfd, 0xf1, 0x03, 0xf8, 0xc1, 0x1f, 0x00,
    0x00, 0x00, 0x00, 0x00, 0x00, 0x00, 0x00, 0x00, 0xfc, 0xff, 0xff, 0x07,
    0xfc, 0xc3, 0x3f, 0x00, 0x00, 0x00, 0x00, 0x00, 0x00, 0x00, 0x00, 0x00,
    0xf6, 0xf7, 0xee, 0x07, 0xf6, 0x43, 0x6f, 0x31, 0x00, 0x00, 0x00, 0x00,
    0x00, 0x00, 0x00, 0x00, 0xf6, 0xf7, 0xee, 0x03, 0x96, 0x43, 0xef, 0x7b,
    0x00, 0x00, 0x00, 0x00, 0x00, 0x00, 0x00, 0x00, 0xf6, 0xf7, 0xff, 0xff,
    0x17, 0xc0, 0xff, 0x5a, 0x00, 0x00, 0x00, 0x00, 0x00, 0x00, 0x00, 0x00,
    0xf6, 0xf6, 0xfe, 0xff, 0x17, 0x40, 0xef, 0x7a, 0x00, 0x00, 0x00, 0x00,
    0x00, 0x00, 0x00, 0x00, 0xf6, 0xf6, 0xfe, 0x05, 0xf6, 0x43, 0xef, 0x7e,
    0x00, 0x00, 0x00, 0x00, 0x00, 0x00, 0x00, 0x00, 0xf6, 0xf6, 0xee, 0x07,
    0xf6, 0x42, 0xef, 0x7e, 0x00, 0x00, 0x00, 0x00, 0x00, 0x00, 0x00, 0x00,
    0xfc, 0xff, 0xfb, 0x03, 0xfc, 0xc3, 0xbf, 0x7f, 0x00, 0x00, 0x00, 0x00,
    0x00, 0x00, 0x00, 0x00, 0x00, 0x00, 0x00, 0x00, 0x00, 0x00, 0x80, 0x7f,
    0x00, 0x00, 0x00, 0x00, 0x00, 0x00, 0x00, 0x00, 0x00, 0x00, 0x00, 0x00,
    0x00, 0x00, 0x80, 0x7f, 0x7e, 0x00, 0x00, 0x00, 0x00, 0x00, 0x00, 0x00,
    0xf0, 0x07, 0xfc, 0x00, 0x00, 0x00, 0x80, 0xbf, 0x83, 0x03, 0x00, 0x00,
    0x00, 0x00, 0x00, 0x00, 0xf0, 0x07, 0xfc, 0x01, 0x00, 0x00, 0x00, 0x80,
    0x83, 0x03, 0x00, 0x00, 0x00, 0x00, 0x00, 0x00, 0x0e, 0x98, 0x03, 0x06,
    0x00, 0x00, 0x00, 0x80, 0x83, 0x03, 0x00, 0x00, 0x00, 0x00, 0x00, 0x00,
    0x0e, 0x98, 0x03, 0x06, 0x00, 0x00, 0x00, 0x80, 0x83, 0x03, 0x00, 0x00,
    0x00, 0x00, 0x00, 0x00, 0x0e, 0x60, 0x00, 0xc6, 0xff, 0xc1, 0xff, 0x8f,
    0xff, 0xe3, 0x7f, 0x80, 0xff, 0x83, 0xff, 0x07, 0x0e, 0x60, 0x00, 0xe6,
    0xff, 0xc1, 0xff, 0x8f, 0xff, 0xe3, 0x7f, 0xc0, 0xff, 0x83, 0xff, 0x07,
    0x0e, 0x00, 0x00, 0x3e, 0x00, 0x3e, 0x00, 0x70, 0x7c, 0x1c, 0x80, 0x31,
    0x00, 0x7c, 0x00, 0x78, 0x0e, 0x00, 0x00, 0x1e, 0x00, 0x3c, 0x00, 0x60,
    0x7c, 0x0c, 0x00, 0x31, 0x00, 0x7c, 0x00, 0x78, 0x0e, 0x00, 0x00, 0x06,
    0x00, 0x38, 0x00, 0x80, 0x83, 0x03, 0x00, 0x0e, 0x00, 0x1c, 0x00, 0x60,
    0x0e, 0x98, 0x03, 0x06, 0x3e, 0x38, 0xf0, 0x80, 0x83, 0x03, 0x1f, 0x0e,
    0x3c, 0x1c, 0x78, 0x60, 0x0e, 0xb8, 0x03, 0x06, 0x3e, 0x38, 0xf0, 0x81,
    0x83, 0x03, 0x1f, 0x0e, 0x3e, 0x1c, 0xfc, 0x60, 0x0e, 0xf8, 0x03, 0x06,
    0x3e, 0x38, 0xf0, 0x81, 0x83, 0x03, 0x1f, 0x0e, 0xfe, 0x1f, 0xf8, 0x60,
    0x0e, 0xf8, 0x03, 0x06, 0x3e, 0x38, 0xf0, 0x81, 0x83, 0x03, 0x1f, 0x0e,
    0xfe, 0x1f, 0xf8, 0x60, 0x0e, 0xf8, 0x03, 0x06, 0x3e, 0x38, 0xf0, 0x81,
    0x83, 0x03, 0x1f, 0x0e, 0xfe, 0x1f, 0xf8, 0x60, 0x0e, 0xb8, 0x03, 0x06,
    0x00, 0x38, 0xf0, 0x81, 0x83, 0x03, 0x00, 0x0e, 0xfe, 0x1f, 0xf8, 0x60,
    0x0e, 0x98, 0x03, 0x06, 0x00, 0x38, 0xf0, 0x81, 0x83, 0x03, 0x00, 0x0e,
    0xfe, 0x1f, 0xf8, 0x60, 0x0e, 0x98, 0x03, 0x06, 0x00, 0x38, 0xf0, 0x81,
    0x83, 0x03, 0x00, 0x0e, 0x3e, 0x1c, 0xfc, 0x60, 0x0e, 0x98, 0x03, 0x06,
    0x00, 0x38, 0xf0, 0x81, 0x83, 0x03, 0x00, 0x0e, 0x3c, 0x1c, 0x78, 0x60,
    0x0e, 0x98, 0x03, 0x06, 0x3e, 0x38, 0xf0, 0x81, 0x83, 0x03, 0x1f, 0x0e,
    0x00, 0x1c, 0x00, 0x60, 0x0e, 0x98, 0x03, 0x06, 0x3e, 0x38, 0xf0, 0x81,
    0x83, 0x03, 0x1f, 0x0e, 0x00, 0x1c, 0x00, 0x70, 0x0e, 0x98, 0x03, 0x06,
    0x3e, 0x38, 0xf0, 0x80, 0x83, 0x03, 0x1f, 0x3e, 0x00, 0x7f, 0x00, 0x78,
    0x0e, 0x9c, 0x03, 0x0f, 0x7e, 0x38, 0xf8, 0xc1, 0x83, 0x83, 0x1f, 0x7e,
    0x00, 0xff, 0x00, 0x7c, 0xfe, 0x9f, 0xff, 0xff, 0xff, 0xff, 0xff, 0xff,
    0xff, 0xff, 0xff, 0xff, 0xff, 0xff, 0xff, 0x1f, 0xfe, 0x9f, 0xff, 0xff,
    0xff, 0xff, 0xff, 0xff, 0xff, 0xff, 0xff, 0xff, 0xff, 0xff, 0xff, 0x1f,
    0xf0, 0x1f, 0xfc, 0xf9, 0xdf, 0xbf, 0x7f, 0xff, 0xfc, 0xf9, 0xf7, 0xcf,
    0xff, 0x83, 0xff, 0x07, 0xf0, 0x1f, 0xfc, 0xf0, 0x8f, 0x1f, 0x3f, 0xfe,
    0xfc, 0xf9, 0xe3, 0x8f, 0xff, 0x83, 0xff, 0x07, 0x00, 0x00, 0x00, 0x00,
    0x00, 0x00, 0x00, 0x00, 0x00, 0x00, 0x00, 0x00, 0x00, 0x00, 0x00, 0x00,
};
